src/pos-icons/share-all-outline.svg

<svg height="24" viewBox="0 0 24 24" width="24" xmlns="http://www.w3.org/2000/svg"><path d="m13 9.8v.9l-1.7.2c-2.6.4-4.5 1.4-5.9 2.7 1.7-.5 3.5-.8 5.6-.8h2v1.3l2.2-2.1zm-2-4.8 7 7-7 7v-4.1c-5 0-8.5 1.6-11 5.1 1-5 4-10 11-11m6-1v-3l7 7-7 7v-3l4-4"/></svg>

<?xml version="1.0" encoding="UTF-8"?><!DOCTYPE svg PUBLIC "-//W3C//DTD SVG 1.1//EN" "http://www.w3.org/Graphics/SVG/1.1/DTD/svg11.dtd"><svg xmlns="http://www.w3.org/2000/svg" xmlns:xlink="http://www.w3.org/1999/xlink" version="1.1" id="mdi-share-all-outline" width="24" height="24" viewBox="0 0 24 24"><path d="M13 9.8V10.7L11.3 10.9C8.7 11.3 6.8 12.3 5.4 13.6C7.1 13.1 8.9 12.8 11 12.8H13V14.1L15.2 12L13 9.8M11 5L18 12L11 19V14.9C6 14.9 2.5 16.5 0 20C1 15 4 10 11 9M17 8V5L24 12L17 19V16L21 12" /></svg>
